libs/icons/src/svg/screen-share-on.svg

<svg width="16" height="16" viewBox="0 0 16 16" fill="none" xmlns="http://www.w3.org/2000/svg">
<g clip-path="url(#clip0_3_3765)">
<path fill-rule="evenodd" clip-rule="evenodd" d="M0.4 0.86667C0.333333 0.86667 0.266667 0.933336 0.2 1C0.0666667 1.13334 0 1.26667 0 1.46667V5.46667C0 5.86667 0.266667 6.13334 0.666667 6.13334C1.06667 6.13334 1.33333 5.86667 1.33333 5.46667V3.06667L4.86667 6.6C5.13333 6.86667 5.53333 6.86667 5.8 6.6C6.06667 6.33334 6.06667 5.93334 5.8 5.66667L2.26667 2.13334H4.66667C5.06667 2.13334 5.33333 1.86667 5.33333 1.46667C5.33333 1.06667 5.06667 0.800003 4.66667 0.800003H0.666667C0.6 0.800003 0.466667 0.800003 0.4 0.86667ZM4 14.1333C3.6 14.1333 3.33333 14.4 3.33333 14.8C3.33333 15.2 3.6 15.4667 4 15.4667H12C12.4 15.4667 12.6667 15.2 12.6667 14.8C12.6667 14.4 12.4 14.1333 12 14.1333H4ZM6.66667 1.46667C6.66667 1.06667 6.93333 0.800003 7.33333 0.800003H15.3333C15.7333 0.800003 16 1.06667 16 1.46667V12.1333C16 12.5333 15.7333 12.8 15.3333 12.8H0.666667C0.266667 12.8 0 12.5333 0 12.1333V8.13334C0 7.73334 0.266667 7.46667 0.666667 7.46667C1.06667 7.46667 1.33333 7.73334 1.33333 8.13334V11.4667H14.6667V2.13334H7.33333C6.93333 2.13334 6.66667 1.86667 6.66667 1.46667Z" fill="#202327"/>
</g>
<defs>
<clipPath id="clip0_3_3765">
<rect width="16" height="16" fill="white"/>
</clipPath>
</defs>
</svg>

<svg xmlns="http://www.w3.org/2000/svg" viewBox="0 0 16 16" class="sageicon"><path fill-rule="evenodd" d="M.4.867C.333.867.267.933.2 1a.605.605 0 0 0-.2.467v4c0 .4.267.666.667.666s.666-.266.666-.666v-2.4L4.867 6.6a.644.644 0 0 0 .933 0 .644.644 0 0 0 0-.933L2.267 2.133h2.4c.4 0 .666-.266.666-.666S5.067.8 4.667.8h-4C.6.8.467.8.4.867ZM4 14.133c-.4 0-.667.267-.667.667s.267.667.667.667h8c.4 0 .667-.267.667-.667s-.267-.667-.667-.667H4ZM6.667 1.467c0-.4.266-.667.666-.667h8c.4 0 .667.267.667.667v10.666c0 .4-.267.667-.667.667H.667c-.4 0-.667-.267-.667-.667v-4c0-.4.267-.666.667-.666s.666.266.666.666v3.334h13.334V2.133H7.333c-.4 0-.666-.266-.666-.666Z"/></svg>
